fill/svg/hard-drive.svg

<svg xmlns="http://www.w3.org/2000/svg" viewBox="0 0 24 24"><g data-name="Layer 2"><g data-name="hard-drive"><rect width="24" height="24" opacity="0"/><path d="M20.79 11.34l-3.34-6.68A3 3 0 0 0 14.76 3H9.24a3 3 0 0 0-2.69 1.66l-3.34 6.68a2 2 0 0 0-.21.9V18a3 3 0 0 0 3 3h12a3 3 0 0 0 3-3v-5.76a2 2 0 0 0-.21-.9zM8 17a1 1 0 1 1 1-1 1 1 0 0 1-1 1zm8 0h-4a1 1 0 0 1 0-2h4a1 1 0 0 1 0 2zM5.62 11l2.72-5.45a1 1 0 0 1 .9-.55h5.52a1 1 0 0 1 .9.55L18.38 11z"/></g></g></svg>

<svg xmlns="http://www.w3.org/2000/svg" viewBox="0 0 24 24"><defs><style>.cls-1{fill:#fff;opacity:0;}.cls-2{fill:#231f20;}</style></defs><title>hard-drive</title><g id="Layer_2" data-name="Layer 2"><g id="hard-drive"><g id="hard-drive-2" data-name="hard-drive"><rect class="cls-1" width="24" height="24"/><path class="cls-2" d="M20.79,11.34,17.45,4.66A3,3,0,0,0,14.76,3H9.24A3,3,0,0,0,6.55,4.66L3.21,11.34a2,2,0,0,0-.21.9V18a3,3,0,0,0,3,3H18a3,3,0,0,0,3-3V12.24A2,2,0,0,0,20.79,11.34ZM8,17a1,1,0,1,1,1-1A1,1,0,0,1,8,17Zm8,0H12a1,1,0,0,1,0-2h4a1,1,0,0,1,0,2ZM5.62,11,8.34,5.55A1,1,0,0,1,9.24,5h5.52a1,1,0,0,1,.9.55L18.38,11Z"/></g></g></g></svg>
